X:1
T:Title
%%score { ( 1 4 ) | ( 2 3 ) }
L:1/8
M:4/4
K:G
V:1 treble nm="Grand Piano"
V:4 treble 
V:2 bass 
V:3 bass 
V:1
 z4 z2[Q:1/4=100] DD | G2 GA B2 GB | d2 d^c d2 GB | [FA]2 [FA][GB] [Ac]2 [Fd][Ac] |[M:3/4] B6 | %5
[M:1/4] Bc |[M:4/4] d2 ed [Ac]2 [FA][GB] | [Ac]2 [Fd][Ac] B2 GB | A2 [FA][FA] ^c2 BA | %9
[M:3/4] [Fd]6 |[M:1/4] D2 |[M:4/4] G2 BA GGBc | d2 e2 d4 | G2 GA B2 G2 |[M:3/4] [FA]4 [Fd]2 | %15
[M:1/4] [Fc]2 |[M:4/4] B2 Bc dB[CGA]G | [Gd]2 [Ge]2 [Gd]4 | [B,G]4 [DAd]2 [DGB]2 |[M:3/4] A4 z2 |] %20
V:2
 z4 z2 [G,B,][G,B,] | [G,B,D]2 [G,B,D][G,CD][K:treble] [G,DG]2 [G,B,D][G,DG] | %2
 [G,B,G]2 [G,B,G][G,_B,G] [G,=B,G]2 [B,D][G,DG] | [D,D]2 [D,D][D,D] [D,D]2 [D,A,][D,D] | %4
[M:3/4][K:treble] [G,DG]6 |[M:1/4] [G,G][G,A,G] | %6
[M:4/4] [G,B,G]2 [G,CG][G,B,G][K:bass] [D,D]2 [D,D][D,D] | %7
 [D,D]2 [D,A,][D,D][K:treble] [G,DG]2 [B,D][G,DG] | %8
 [F,D]2 [D,D][D,D][K:treble] [A,EG]2 [A,DG][A,^CG] |[M:3/4][K:bass] [D,D]6 |[M:1/4] [F,C]2 | %11
[M:4/4][K:treble] z2 .D2 .B,2 .D2 | [G,B,G]2 [A,CG]2 [G,B,G]4 | %13
 [G,D]2- [G,-B,D-][G,CD] [G,DG]2[K:bass] [E,^C]2 |[M:3/4] [D,D]4 [D,B,]2 |[M:1/4] [D,D]2 | %16
[M:4/4][K:treble] [G,DG]2 [G,G]-[G,A,G] B,D[K:bass] z B, | [E,C]2 [C,C]2 [G,B,]4 | G,4 F,2 G,2 | %19
[M:3/4] z2 C2 [G,B,]2 |] %20
V:3
 x8 | x4[K:treble] x4 | x8 | x8 |[M:3/4][K:treble] x6 |[M:1/4] x2 |[M:4/4] x4[K:bass] x4 | %7
 x4[K:treble] x4 | x4[K:treble] x4 |[M:3/4][K:bass] x6 |[M:1/4] x2 | %11
[M:4/4][K:treble] [G,B,D]2 [G,G]-[G,CG] [G,D]-[G,B,D][G,G]-[G,A,G] | x8 | B,2 z2 z4[K:bass] | %14
[M:3/4] x6 |[M:1/4] x2 |[M:4/4][K:treble] z2 .D2 [G,G]2[K:bass] G,2 | x8 | x8 |[M:3/4] D,4 z2 |] %20
V:4
 x8 | x8 | x8 | x8 |[M:3/4] x6 |[M:1/4] x2 |[M:4/4] x8 | x8 | x8 |[M:3/4] x6 |[M:1/4] x2 | %11
[M:4/4] x8 | x8 | x8 |[M:3/4] x6 |[M:1/4] x2 |[M:4/4] x8 | x8 | x8 |[M:3/4] [DG]2 F2 G2 |] %20

